X: 1
T: RIGS O' MARLOW
S: MDT
O: Headington
P: A.(A2B2)4
Q: 1/4=176
B: Morris Ring
Z: 2005 John Chambers <jc@trillian.mit.edu>
M: 4/4
L: 1/8
K: C
P: A
|: c<e  c<e c<e ed/c/ | B<d  B<d B<d fe/d/ | c<e  c<e c<e g>c' | a>f d>B c2 c2 :|
P: B
|: c'>a g>f e>f g2    | c'>a g>f e2  d2    | c'>a g>f e>c f>f  | e<c d<B c2 c2 :|
